assets/icons/feather.svg

<svg width="21" height="21" viewBox="0 0 21 21" fill="none" xmlns="http://www.w3.org/2000/svg">
<path d="M19.0065 2.16615C19.0065 2.16615 12.6398 1.85782 7.62318 8.73282C3.77318 14.0078 2.33984 18.8328 2.33984 18.8328L3.95651 17.9995C5.15651 15.9162 5.78151 15.0578 6.95651 13.8328C9.06484 14.4495 11.2648 14.3745 13.1732 12.1662C11.5065 11.6995 10.1732 11.8078 8.20651 12.0078C10.4148 10.4995 11.9232 10.1662 14.0065 10.4995L14.8398 8.83282C13.3398 8.54949 12.3398 8.52449 10.8565 8.86615C12.4982 7.70782 13.6398 7.05782 15.6732 7.16615L16.6815 5.55782C15.3815 5.46615 14.5982 5.60782 13.1065 5.97448C14.4482 4.75782 15.6732 4.20782 17.4565 4.09949C17.4565 4.09949 18.3315 2.52448 19.0065 2.16615Z" fill="currentColor"/>
</svg>

<svg xmlns="http://www.w3.org/2000/svg" width="21" height="21" fill="none" viewBox="0 0 21 21"><path fill="currentColor" d="M19.007 2.166S12.64 1.858 7.622 8.733c-3.85 5.275-5.283 10.1-5.283 10.1L3.957 18c1.2-2.084 1.825-2.942 3-4.167 2.108.617 4.308.541 6.216-1.667-1.666-.466-3-.358-4.966-.158 2.208-1.508 3.716-1.842 5.8-1.508l.833-1.667c-1.5-.284-2.5-.309-3.983.033 1.641-1.158 2.783-1.808 4.816-1.7l1.008-1.608c-1.3-.092-2.083.05-3.575.416 1.342-1.216 2.567-1.766 4.35-1.875 0 0 .875-1.575 1.55-1.933"/></svg>
